X:1
T:Fredmans Epistel  nr. 58
T:Fredmans Epistel  nr. 58
T:Halfdan Kjerulf
T:C. M. Bellman
C:Halfdan Kjerulf
Z:C. M. Bellman
%%score [ 1 2 3 4 ]
L:1/8
Q:1/4=100
M:3/4
K:F
V:1 treble-8 nm="Tenor"
V:2 treble-8 nm="Tenor"
V:3 bass nm="Bass"
V:4 bass nm="Bass"
V:1
"^Menuetto" !tenuto!c2!p! .c .c .c .c | !tenuto!d2 d d d d | (!>!fe) d c d e | f2 .c2 .F2 | %4
w: 1.Hjer- tat mig kläm- mer,|sog- ligt jag stäm- mer|qvin- * ten på min fi-|ol. Pling, plang.|
w: 4.Nå som jag skå- dar|Cha- ron be- bå- dar|mig _ på sin svar- ta|älf. Pling, plang.|
 !>!c2!<(! c c c!<)! c | !>!d2!<(! d d d d!<)! | (fe) d c d e | f2 .c2 .F2 |"^dolce" A3 c B G | %9
w: Lju- set ut- brun- nit,|gla- set ut- run- nit;|ej _ fins en en- da|stol. Kling, klang.|Krog- dör'n står på|
w: Så vil jag glöm- ma|fla- skan att töm- ma,|och _ hän- ga upp mig|sjelf. Kling, klang.|Far då v'al o|
 A B c d e f | G3 B A G | F!<(! f !tenuto!e !tenuto!d !tenuto!c!<)! !tenuto!B | A3 c B G | %13
w: gaf- vel, mi- na brö- der|och där bak- om|di- sken lig- ger dö- der,|Kil- berg ack! mitt|
w: verld med all din sna- ra!|Bränn- vins- för- bu-|det må (nu) gär- na va- ra.|Kil- berg står nu|
!<(! A B c d!<)! !>!e f |!mp! (3d B G (3c A F (3B G E | F4 z2 |] %16
w: hjer- ta i mig blö- der,|Klin- ge- li, plin- ge- li, klin- ge- li|plang.|
w: bland on äng- la- ska- ra,|Klin- ge- li, plin- ge- lig, klin- ge- li|plang.|
V:2
 !tenuto!A2!p! .A .A .A .A | !tenuto!B2 B B B B | !>!B2 B B B B | A2 .c2 .F2 | %4
w: 1.Hjer- tat mig kläm- mer,|sog- ligt jag stäm- mer|qvin- ten på min fi-|ol. Pling, plang.|
w: 4.Nå som jag skå- dar|Cha- ron be- bå- dar|mig på sin svar- ta|älf. Pling, plang.|
 !>!A2!<(! A A A!<)! A | !>!B2!<(! B A G F!<)! | G2 G G c c | c2 .c2 .F2 | F3 A G E | F F F F F F | %10
w: Lju- set ut- brun- nit,|gla- set ut- run- nit;|ej fins en en- da|stol. Kling, klang.|Krog- dör'n står på|gaf- vel, mi- na brö- der|
w: Så vil jag glöm- ma|fla- skan att töm- ma,|och hän- ga upp mig|sjelf. Kling, klang.|Far då v'al o|verld med all din sna- ra!|
 E3 G F E | D!<(! d !tenuto!c !tenuto!B !tenuto!A!<)! !tenuto!G | F3 F F E | %13
w: och där bak- om|di- sken lig- ger dö- der,|Kil- berg ack! mitt|
w: Bränn- vins- för- bu-|det må (nu) gär- na va- ra.|Kil- berg står nu|
!<(! F G A B!<)! !>!B A |!mp! (3F F F (3F F F (3E G B | A4 z2 |] %16
w: hjer- ta i mig blö- der,|Klin- ge- li, plin- ge- li, klin- ge- li|plang.|
w: bland on äng- la- ska- ra,|Klin- ge- li, plin- ge- lig, klin- ge- li|plang.|
V:3
 !tenuto!F,2!p! .F, .F, .F, .F, | !tenuto!F,2 F, F, F, F, | !>!G,2 G, G, C C | C2 .C2 .F,2 | %4
w: 1.Hjer- tat mig kläm- mer,|sog- ligt jag stäm- mer|qvin- ten på min fi-|ol. Pling, plang.|
w: 4.Nå som jag skå- dar|Cha- ron be- bå- dar|mig på sin svar- ta|älf. Pling, plang.|
 !>!F,2!<(! F, F, F,!<)! F, | !>!F,2!<(! F, F, B, B,!<)! | B,2 B, B, B, B, | A,2 .C2 .F,2 | %8
w: Lju- set ut- brun- nit,|gla- set ut- run- nit;|ej fins en en- da|stol. Kling, klang.|
w: Så vil jag glöm- ma|fla- skan att töm- ma,|och hän- ga upp mig|sjelf. Kling, klang.|
 F,3 A, G, C, | F, G, A, B, G, A, | C3 C, C, C, | %11
w: Krog- dör'n står på|gaf- vel, mi- na brö- der|och där bak- om|
w: Far då v'al o|verld med all din sna- ra!|Bränn- vins- för- bu-|
 D,!<(! D, !tenuto!D, !tenuto!D, !tenuto!E,!<)! !tenuto!E, | F,3 C, C, C, | %13
w: di- sken lig- ger dö- der,|Kil- berg ack! mitt|
w: det må (nu) gär- na va- ra.|Kil- berg står nu|
!<(! F, F, F, F,!<)! !>!G, F, |!mp! (3B, B, B, (3A, A, A, (3G, G, G, | F,4 z2 |] %16
w: hjer- ta i mig blö- der,|Klin- ge- li, plin- ge- li, klin- ge- li|plang.|
w: bland on äng- la- ska- ra,|Klin- ge- li, plin- ge- lig, klin- ge- li|plang.|
V:4
 !tenuto!F,2!p! .F, .F, .F, .F, | !tenuto!B,,2 B,, B,, B,, B,, | !>!G,,2 C, C, C, C, | %3
w: 1.Hjer- tat mig kläm- mer,|sog- ligt jag stäm- mer|qvin- ten på min fi-|
w: 4.Nå som jag skå- dar|Cha- ron be- bå- dar|mig på sin svar- ta|
 F,2 .C,2 .F,,2 | !>!F,2!<(! F, E, D,!<)! C, | !>!B,,2!<(! B,, B,, B,, B,,!<)! | G,,2 C, C, C, C, | %7
w: ol. Pling, plang.|Lju- set ut- brun- nit,|gla- set ut- run- nit;|ej fins en en- da|
w: älf. Pling, plang.|Så vil jag glöm- ma|fla- skan att töm- ma,|och hän- ga upp mig|
 F,2 .C,2 .F,,2 | z6 | z6 | z6 | z6 | F,,3 A,, C, C, |!<(! F, E, _E, D,!<)! !>!^C, D, | %14
w: stol. Kling, klang.|||||Kil- berg ack! mitt|hjer- ta i mig blö- der,|
w: sjelf. Kling, klang.|||||Kil- berg står nu|bland on äng- la- ska- ra,|
!mp! (3B,, B,, B,, (3C, C, C, (3C, C, C, | F,2!p! !wedge!C,2 !wedge!F,,2 |] %16
w: Klin- ge- li, plin- ge- li, klin- ge- li|plang. * *|
w: Klin- ge- li, plin- ge- lig, klin- ge- li|plang, pling, plang.|

